X:12936
%16192
T:Sweeney's
C:Trad.
S:Begged, Borrowed or Stolen
K:Cmaj
M:4/4
||G2GG E2G2 | C2G2 E2G2 | ABcA G2E2 | D2C2 A,4 | 
G2GG E2G2 | C2G2 E2G2 | ABcA G2E2 | D2C2 C4 :|
||E2G2 c3A | G2E2 D2C2 | E2G2 c3A | G2E2 D4 |
E2G2c3A | G2E2 D2C2 | GGGG E3D | D2C2 C4
%Warning : No repeat expected, found :|
:|


